X:1
T:Crimond, CM
T:Crimond, CM
T:Jessie Seymour Irvine, 1872
T:Public Domain Courtesy of the Cyber Hymnal™
C:Jessie Seymour Irvine, 1872
Z:Public Domain
Z:Courtesy of the Cyber Hymnal™
%%score ( 1 2 ) ( 3 4 )
L:1/8
M:3/4
K:F
V:1 treble 
V:2 treble 
V:3 bass 
V:4 bass 
V:1
 C2 | [FA]4 (B>G) | [Fc]4 (BG) | [CF]4 [CE]2 | [CF]4 [FA]2 | (A2 G2) [CG]2 | =B4 [FB]2 | %7
 [Ec]4 [FA]2 | ([FA]2 [GB]2) [FA]2 | [EG]4 [FA]2 | ([GB]2 [Ec]2) [GB]2 | [FA]4 A2 | (G2 B2) [Dd]2 | %13
 [CF]4 [CE]2 | [CF]4 |] %15
V:2
 C2 | x4 E2 | x4 D2 | x6 | x6 | C4 x2 | (D2 G2) x2 | x6 | x6 | x6 | x6 | x4 (FE) | D4 x2 | x6 | %14
 x4 |] %15
V:3
 [F,A,]2 | [F,C]4 C2 | C4 (G,B,) | [C,A,]4 [C,G,]2 | [F,A,]4 [F,C]2 | F,2 [E,G,]2 [E,G,]2 | %6
 G,4 [G,,G,]2 | [C,C]4 [F,C]2 | C4 [F,C]2 | C4 [A,C]2 | ([G,D]2 [C,C]2) C2 | [F,C]4 [F,C]2 | %12
 (B,2 G,2) [B,,G,]2 | [C,A,]4 [C,G,]2 | [F,A,]4 |] %15
V:4
 x2 | x4 (G,>B,) | (A,2 A,,2) B,,2 | x6 | x6 | F,2 x4 | G,4 x2 | x6 | (F,2 E,2) x2 | (C,2 B,2) x2 | %10
 x4 (D,E,) | x6 | B,,4 x2 | x6 | x4 |] %15

